icons/modern/globe-showing-europe-africa.svg

<svg width="32" height="32" viewBox="0 0 32 32" fill="none" xmlns="http://www.w3.org/2000/svg">
<g filter="url(#filter0_i_18_4729)">
<path d="M16 30C23.732 30 30 23.732 30 16C30 8.26801 23.732 2 16 2C8.26801 2 2 8.26801 2 16C2 23.732 8.26801 30 16 30Z" fill="url(#paint0_radial_18_4729)"/>
<path d="M16 30C23.732 30 30 23.732 30 16C30 8.26801 23.732 2 16 2C8.26801 2 2 8.26801 2 16C2 23.732 8.26801 30 16 30Z" fill="url(#paint1_radial_18_4729)"/>
</g>
<g filter="url(#filter1_f_18_4729)">
<path d="M19.8107 2.68164L18.4289 3.98158C18.2484 4.15141 18.0098 4.24598 17.762 4.24598C17.4388 4.24598 17.1247 4.13874 16.869 3.94107L16.4953 3.65216C16.2887 3.44418 15.9835 3.30538 15.6884 3.30538H14.4293C14.2523 3.30538 13.9705 3.39441 13.7439 3.52332L12.5532 4.18696C12.386 4.26619 12.2876 4.43456 12.2778 4.61283C12.2827 4.88448 12.2827 5.03066 12.2827 5.18578C12.2827 5.3409 12.2827 5.50496 12.2876 5.81238C12.2876 6.1194 12.5925 6.27932 12.8286 6.26941C13.0745 6.24961 13.2712 5.99357 13.2712 5.74598C13.2712 4.75675 13.5427 4.72813 13.7351 4.70784L13.7439 4.70691C14.3298 4.64441 14.3264 5.23863 14.2959 5.89558C14.289 6.04307 14.2821 6.19264 14.2821 6.33608C14.2821 6.9105 13.8984 7.30665 13.3181 7.30665H11.7639C11.4811 7.30059 11.1835 7.17223 10.8915 7.04626C10.7062 6.96631 10.5231 6.88731 10.3474 6.84117C9.93429 6.74213 9.3736 6.71893 9.3736 7.50132V7.80834C9.3736 7.99651 9.24498 8.12581 9.00172 8.21863C8.70484 8.33191 8.38011 8.58423 8.38011 8.95067V10.0731C8.38011 10.4197 8.66537 10.7069 9.01948 10.7069H9.59001C10.0634 10.7069 10.1499 10.146 10.2102 9.75459C10.2167 9.71209 10.223 9.67159 10.2294 9.63403C10.2294 9.44586 10.3769 9.2874 10.5737 9.2874H11.5278C11.6163 9.2874 12.0688 9.2973 12.4229 9.59441L12.8558 9.93114C13.082 10.1589 13.3771 10.2778 13.6919 10.2778H13.8296C14.0558 10.2778 14.2624 10.1688 14.3804 9.98066L14.9903 9.06951C15.1083 8.89125 15.3051 8.79221 15.5116 8.79221H15.8756C16.033 8.79221 16.1608 8.92096 16.1608 9.07942V9.54676C16.1608 10.0975 16.7017 10.2778 17.0068 10.2778C17.6265 10.2778 18.138 10.7829 18.138 11.4068C18.138 11.7336 17.7839 11.9317 17.4986 11.7633C16.9773 11.4464 16.092 11.1988 15.6493 11.3078C15.2165 11.4068 14.2722 12.2684 14.2722 12.2684C14.2722 12.2684 13.1607 12.5259 13.1902 11.9515V11.6742C13.2 11.4068 12.9443 11.288 12.718 11.288H11.695C11.3901 11.288 11.095 11.4068 10.8786 11.6247L10.5638 11.9416C10.3474 12.1595 10.0622 12.2783 9.75723 12.2783H8.71455C8.37027 12.2684 8.03582 12.4071 7.79975 12.6547L6.74723 13.7738C6.45213 14.0907 6.28491 14.5166 6.28491 14.9622V15.6654C6.28491 16.5468 7.37677 18.2206 8.25223 18.2206H11.0655C11.9803 18.2206 12.718 18.9634 12.718 19.8844V21.5879C12.718 21.9444 13.0131 22.2415 13.3673 22.2415H13.7115C13.9181 22.2415 14.2034 22.3802 14.2034 22.9348V25.0236C14.2034 25.6079 14.6755 26.0932 15.2657 26.0932H15.7477C16.033 26.0932 16.2986 25.9842 16.4953 25.7762L17.9388 24.3114C18.1232 24.1243 18.2265 23.8722 18.2265 23.6095V21.8354C18.2364 21.5086 18.5013 21.121 18.8259 21.121C19.0263 21.121 19.2136 21.0217 19.3262 20.856L21.0398 18.3329C21.1382 18.1349 21.1873 17.917 21.1873 17.6991V17.3426C21.1873 17.1841 21.0595 17.0455 20.9021 17.0256C19.7869 16.7929 18.2167 15.9882 18.2167 14.996V14.6651C18.2167 13.2783 19.3422 13.2785 19.6274 13.2786L19.6332 13.2786C19.9086 13.2786 20.125 13.5064 20.125 13.7738V14.6156C20.125 14.9722 20.5681 15.41 21.2009 15.121L22.2087 14.6156C22.7104 14.3581 22.8438 13.8313 22.4587 13.371C22.0994 12.9413 21.9862 12.2147 22.7478 12.2147H24.1384C25.3962 12.2147 26.086 14.1279 26.086 15.3164V15.8512C26.086 16.0195 26.2237 16.1582 26.3909 16.1582H26.7253C26.9417 16.1582 27.1385 16.0492 27.2565 15.871L29.5031 12.7955C28.3158 7.9344 24.5903 4.06843 19.8107 2.68164Z" fill="url(#paint2_linear_18_4729)"/>
</g>
<g filter="url(#filter2_ii_18_4729)">
<path d="M19.9084 2.55273L18.5265 3.85267C18.346 4.02251 18.1075 4.11707 17.8596 4.11707C17.5364 4.11707 17.2224 4.00983 16.9667 3.81217L16.5929 3.52326C16.3864 3.31528 16.0812 3.17647 15.7861 3.17647H14.527C14.3499 3.17647 14.0681 3.26551 13.8416 3.39441L12.6508 4.05806C12.4836 4.13729 12.3852 4.30565 12.3754 4.48392C12.3803 4.75557 12.3803 4.90175 12.3803 5.05687C12.3803 5.21199 12.3803 5.37605 12.3852 5.68348C12.3852 5.99049 12.6902 6.15041 12.9263 6.14051C13.1722 6.1207 13.3689 5.86466 13.3689 5.61707C13.3689 4.62785 13.6404 4.59922 13.8328 4.57894L13.8416 4.57801C14.4275 4.51551 14.4241 5.10973 14.3935 5.76667C14.3867 5.91417 14.3797 6.06373 14.3797 6.20717C14.3797 6.78159 13.9961 7.17774 13.4157 7.17774H11.8615C11.5787 7.17168 11.2812 7.04332 10.9892 6.91735C10.8039 6.8374 10.6208 6.75841 10.4451 6.71226C10.0319 6.61323 9.47126 6.59002 9.47126 7.37242V7.67943C9.47126 7.86761 9.34264 7.9969 9.09937 8.08973C8.8025 8.20301 8.47776 8.45532 8.47776 8.82176V9.94417C8.47776 10.2908 8.76302 10.578 9.11714 10.578H9.68766C10.1611 10.578 10.2475 10.0171 10.3079 9.62568C10.3144 9.58318 10.3206 9.54269 10.327 9.50512C10.327 9.31695 10.4746 9.15849 10.6713 9.15849H11.6255C11.714 9.15849 12.1665 9.16839 12.5206 9.46551L12.9534 9.80223C13.1797 10.03 13.4747 10.1489 13.7895 10.1489H13.9272C14.1535 10.1489 14.36 10.0399 14.4781 9.85175L15.0879 8.94061C15.206 8.76234 15.4027 8.6633 15.6093 8.6633H15.9732C16.1306 8.6633 16.2585 8.79205 16.2585 8.95051V9.41785C16.2585 9.96863 16.7994 10.1489 17.1044 10.1489C17.7242 10.1489 18.2357 10.654 18.2357 11.2779C18.2357 11.6047 17.8815 11.8028 17.5963 11.6344C17.0749 11.3175 16.1896 11.0699 15.747 11.1789C15.3142 11.2779 14.3699 12.1395 14.3699 12.1395C14.3699 12.1395 13.2583 12.397 13.2879 11.8226V11.5453C13.2977 11.2779 13.0419 11.159 12.8157 11.159H11.7927C11.4878 11.159 11.1927 11.2779 10.9763 11.4958L10.6615 11.8127C10.4451 12.0306 10.1598 12.1494 9.85488 12.1494H8.81221C8.46793 12.1395 8.13348 12.2782 7.8974 12.5258L6.84489 13.6449C6.54979 13.9618 6.38257 14.3877 6.38257 14.8333V15.5365C6.38257 16.4179 7.47443 18.0917 8.34989 18.0917H11.1631C12.078 18.0917 12.8157 18.8345 12.8157 19.7555V21.459C12.8157 21.8155 13.1108 22.1126 13.4649 22.1126H13.8092C14.0158 22.1126 14.301 22.2512 14.301 22.8059V24.8947C14.301 25.479 14.7732 25.9643 15.3634 25.9643H15.8454C16.1306 25.9643 16.3962 25.8553 16.5929 25.6473L18.0365 24.1825C18.2208 23.9954 18.3242 23.7433 18.3242 23.4806V21.7065C18.334 21.3797 18.599 20.9921 18.9236 20.9921C19.1239 20.9921 19.3113 20.8928 19.4239 20.7271L21.1375 18.204C21.2358 18.006 21.285 17.7881 21.285 17.5702V17.2137C21.285 17.0552 21.1571 16.9165 20.9997 16.8967C19.8845 16.6639 18.3143 15.8593 18.3143 14.8671V14.5362C18.3143 13.1494 19.4398 13.1496 19.725 13.1497L19.7308 13.1497C20.0062 13.1497 20.2226 13.3775 20.2226 13.6449V14.4867C20.2226 14.8432 20.6658 15.2811 21.2986 14.9921L22.3064 14.4867C22.8081 14.2292 22.9414 13.7024 22.5564 13.2421C22.197 12.8124 22.0839 12.0858 22.8455 12.0858H24.2361C25.4939 12.0858 26.1836 13.999 26.1836 15.1875V15.7223C26.1836 15.8906 26.3213 16.0293 26.4886 16.0293H26.823C27.0394 16.0293 27.2361 15.9203 27.3542 15.7421L29.6007 12.6666C28.4134 7.80549 24.688 3.93952 19.9084 2.55273Z" fill="url(#paint3_radial_18_4729)"/>
</g>
<g filter="url(#filter3_f_18_4729)">
<rect x="21.1719" y="21.1016" width="0.929688" height="1.90625" rx="0.464844" fill="#1C51A0"/>
</g>
<g filter="url(#filter4_ii_18_4729)">
<rect x="21.25" y="21.0312" width="0.984375" height="1.91406" rx="0.492188" fill="url(#paint4_linear_18_4729)"/>
</g>
<defs>
<filter id="filter0_i_18_4729" x="2" y="1.75" width="28.25" height="28.25" filterUnits="userSpaceOnUse" color-interpolation-filters="sRGB">
<feFlood flood-opacity="0" result="BackgroundImageFix"/>
<feBlend mode="normal" in="SourceGraphic" in2="BackgroundImageFix" result="shape"/>
<feColorMatrix in="SourceAlpha" type="matrix" values="0 0 0 0 0 0 0 0 0 0 0 0 0 0 0 0 0 0 127 0" result="hardAlpha"/>
<feOffset dx="0.25" dy="-0.25"/>
<feGaussianBlur stdDeviation="1"/>
<feComposite in2="hardAlpha" operator="arithmetic" k2="-1" k3="1"/>
<feColorMatrix type="matrix" values="0 0 0 0 0.388235 0 0 0 0 0.537255 0 0 0 0 0.694118 0 0 0 1 0"/>
<feBlend mode="normal" in2="shape" result="effect1_innerShadow_18_4729"/>
</filter>
<filter id="filter1_f_18_4729" x="6.18491" y="2.58164" width="23.4181" height="23.6116" filterUnits="userSpaceOnUse" color-interpolation-filters="sRGB">
<feFlood flood-opacity="0" result="BackgroundImageFix"/>
<feBlend mode="normal" in="SourceGraphic" in2="BackgroundImageFix" result="shape"/>
<feGaussianBlur stdDeviation="0.05" result="effect1_foregroundBlur_18_4729"/>
</filter>
<filter id="filter2_ii_18_4729" x="6.28257" y="2.45273" width="23.4181" height="23.5116" filterUnits="userSpaceOnUse" color-interpolation-filters="sRGB">
<feFlood flood-opacity="0" result="BackgroundImageFix"/>
<feBlend mode="normal" in="SourceGraphic" in2="BackgroundImageFix" result="shape"/>
<feColorMatrix in="SourceAlpha" type="matrix" values="0 0 0 0 0 0 0 0 0 0 0 0 0 0 0 0 0 0 127 0" result="hardAlpha"/>
<feOffset dx="-0.1" dy="-0.1"/>
<feGaussianBlur stdDeviation="0.05"/>
<feComposite in2="hardAlpha" operator="arithmetic" k2="-1" k3="1"/>
<feColorMatrix type="matrix" values="0 0 0 0 0.403922 0 0 0 0 0.929412 0 0 0 0 0.690196 0 0 0 1 0"/>
<feBlend mode="normal" in2="shape" result="effect1_innerShadow_18_4729"/>
<feColorMatrix in="SourceAlpha" type="matrix" values="0 0 0 0 0 0 0 0 0 0 0 0 0 0 0 0 0 0 127 0" result="hardAlpha"/>
<feOffset dx="0.1" dy="-0.1"/>
<feGaussianBlur stdDeviation="0.05"/>
<feComposite in2="hardAlpha" operator="arithmetic" k2="-1" k3="1"/>
<feColorMatrix type="matrix" values="0 0 0 0 0.203922 0 0 0 0 0.592157 0 0 0 0 0.482353 0 0 0 1 0"/>
<feBlend mode="normal" in2="effect1_innerShadow_18_4729" result="effect2_innerShadow_18_4729"/>
</filter>
<filter id="filter3_f_18_4729" x="20.9719" y="20.9016" width="1.32969" height="2.30625" filterUnits="userSpaceOnUse" color-interpolation-filters="sRGB">
<feFlood flood-opacity="0" result="BackgroundImageFix"/>
<feBlend mode="normal" in="SourceGraphic" in2="BackgroundImageFix" result="shape"/>
<feGaussianBlur stdDeviation="0.1" result="effect1_foregroundBlur_18_4729"/>
</filter>
<filter id="filter4_ii_18_4729" x="21.2" y="20.9812" width="1.08438" height="2.01406" filterUnits="userSpaceOnUse" color-interpolation-filters="sRGB">
<feFlood flood-opacity="0" result="BackgroundImageFix"/>
<feBlend mode="normal" in="SourceGraphic" in2="BackgroundImageFix" result="shape"/>
<feColorMatrix in="SourceAlpha" type="matrix" values="0 0 0 0 0 0 0 0 0 0 0 0 0 0 0 0 0 0 127 0" result="hardAlpha"/>
<feOffset dx="-0.05" dy="0.05"/>
<feGaussianBlur stdDeviation="0.05"/>
<feComposite in2="hardAlpha" operator="arithmetic" k2="-1" k3="1"/>
<feColorMatrix type="matrix" values="0 0 0 0 0.423529 0 0 0 0 0.960784 0 0 0 0 0.721569 0 0 0 1 0"/>
<feBlend mode="normal" in2="shape" result="effect1_innerShadow_18_4729"/>
<feColorMatrix in="SourceAlpha" type="matrix" values="0 0 0 0 0 0 0 0 0 0 0 0 0 0 0 0 0 0 127 0" result="hardAlpha"/>
<feOffset dx="0.05" dy="-0.05"/>
<feGaussianBlur stdDeviation="0.1"/>
<feComposite in2="hardAlpha" operator="arithmetic" k2="-1" k3="1"/>
<feColorMatrix type="matrix" values="0 0 0 0 0.254902 0 0 0 0 0.568627 0 0 0 0 0.513726 0 0 0 1 0"/>
<feBlend mode="normal" in2="effect1_innerShadow_18_4729" result="effect2_innerShadow_18_4729"/>
</filter>
<radialGradient id="paint0_radial_18_4729" cx="0" cy="0" r="1" gradientUnits="userSpaceOnUse" gradientTransform="translate(22.7559 11.6181) rotate(122.072) scale(21.1401 23.9585)">
<stop stop-color="#63D8FF"/>
<stop offset="1" stop-color="#3488EF"/>
</radialGradient>
<radialGradient id="paint1_radial_18_4729" cx="0" cy="0" r="1" gradientUnits="userSpaceOnUse" gradientTransform="translate(25.7544 9.61918) rotate(137.749) scale(26.0707 34.5063)">
<stop offset="0.495708" stop-color="#465DC2" stop-opacity="0"/>
<stop offset="1" stop-color="#465DC2"/>
</radialGradient>
<linearGradient id="paint2_linear_18_4729" x1="19.2304" y1="6.15223" x2="11.4179" y2="21.1522" gradientUnits="userSpaceOnUse">
<stop stop-color="#40B9F0"/>
<stop offset="1" stop-color="#305CBD"/>
</linearGradient>
<radialGradient id="paint3_radial_18_4729" cx="0" cy="0" r="1" gradientUnits="userSpaceOnUse" gradientTransform="translate(24.2167 8.54271) rotate(133.768) scale(20.2284 18.6634)">
<stop offset="0.291562" stop-color="#78FFB5"/>
<stop offset="1" stop-color="#409A79"/>
</radialGradient>
<linearGradient id="paint4_linear_18_4729" x1="21.25" y1="21.9883" x2="22.4484" y2="21.9883" gradientUnits="userSpaceOnUse">
<stop stop-color="#55CC9B"/>
<stop offset="1" stop-color="#53C999"/>
</linearGradient>
</defs>
</svg>

<svg width="32" height="32" fill="none" xmlns="http://www.w3.org/2000/svg"><g filter="url(#a)"><path d="M16 30c7.732 0 14-6.268 14-14S23.732 2 16 2 2 8.268 2 16s6.268 14 14 14Z" fill="url(#b)"/><path d="M16 30c7.732 0 14-6.268 14-14S23.732 2 16 2 2 8.268 2 16s6.268 14 14 14Z" fill="url(#c)"/></g><g filter="url(#d)"><path d="m19.81 2.682-1.381 1.3a.973.973 0 0 1-.667.264 1.46 1.46 0 0 1-.893-.305l-.374-.289a1.18 1.18 0 0 0-.807-.347H14.43c-.177 0-.459.09-.685.218l-1.19.664a.496.496 0 0 0-.276.426c.005.271.005.418.005.573 0 .155 0 .319.005.626 0 .307.304.467.54.457.247-.02.443-.275.443-.523 0-.99.272-1.018.464-1.038l.009-.001c.586-.063.582.532.552 1.189a9.564 9.564 0 0 0-.014.44c0 .574-.384.97-.964.97h-1.554c-.283-.005-.58-.134-.872-.26a3.992 3.992 0 0 0-.545-.205c-.413-.099-.973-.122-.973.66v.307c0 .189-.129.318-.372.41-.297.114-.622.366-.622.733v1.122c0 .347.285.634.64.634h.57c.473 0 .56-.561.62-.952l.02-.121c0-.188.147-.347.344-.347h.954c.088 0 .54.01.895.307l.433.337c.226.228.521.347.836.347h.138a.642.642 0 0 0 .55-.297l.61-.911a.621.621 0 0 1 .522-.278h.364c.157 0 .285.129.285.287v.468c0 .55.54.73.846.73.62 0 1.131.506 1.131 1.13a.42.42 0 0 1-.64.356c-.52-.317-1.406-.564-1.849-.455-.432.099-1.377.96-1.377.96s-1.111.258-1.082-.317v-.277c.01-.267-.246-.386-.472-.386h-1.023c-.305 0-.6.119-.816.337l-.315.317a1.127 1.127 0 0 1-.807.336H8.715a1.22 1.22 0 0 0-.915.377l-1.053 1.119a1.745 1.745 0 0 0-.462 1.188v.703c0 .882 1.092 2.556 1.967 2.556h2.813c.915 0 1.653.742 1.653 1.663v1.704c0 .356.295.653.65.653h.343c.207 0 .492.14.492.694v2.089c0 .584.473 1.07 1.063 1.07h.482c.285 0 .55-.11.747-.318l1.444-1.465a1 1 0 0 0 .288-.701v-1.775c.01-.326.274-.714.599-.714.2 0 .388-.1.5-.265l1.714-2.523c.098-.198.147-.416.147-.634v-.356a.328.328 0 0 0-.285-.317c-1.115-.233-2.685-1.038-2.685-2.03v-.33c0-1.388 1.125-1.388 1.41-1.387h.006c.276 0 .492.227.492.495v.842c0 .356.443.794 1.076.505l1.008-.505c.501-.258.635-.785.25-1.245-.36-.43-.473-1.156.289-1.156h1.39c1.258 0 1.948 1.913 1.948 3.101v.535c0 .168.138.307.305.307h.334a.635.635 0 0 0 .531-.287l2.247-3.075a14.026 14.026 0 0 0-9.692-10.114Z" fill="url(#e)"/></g><g filter="url(#f)"><path d="m19.908 2.553-1.382 1.3a.973.973 0 0 1-.666.264 1.46 1.46 0 0 1-.893-.305l-.374-.289a1.18 1.18 0 0 0-.807-.347h-1.259c-.177 0-.459.09-.685.218l-1.191.664a.496.496 0 0 0-.276.426c.005.272.005.418.005.573 0 .155 0 .319.005.626 0 .307.305.467.541.458.246-.02.443-.276.443-.524 0-.99.271-1.018.464-1.038l.009-.001c.585-.062.582.532.551 1.189-.006.147-.013.297-.013.44 0 .575-.384.97-.964.97H11.86c-.282-.005-.58-.134-.872-.26a3.993 3.993 0 0 0-.544-.205c-.413-.099-.974-.122-.974.66v.307c0 .189-.128.318-.372.41-.296.114-.621.366-.621.733v1.122c0 .347.285.634.64.634h.57c.473 0 .56-.56.62-.952l.019-.12c0-.189.148-.348.344-.348h.955c.088 0 .54.01.895.308l.432.336c.227.228.522.347.837.347h.137a.643.643 0 0 0 .551-.297l.61-.911a.622.622 0 0 1 .521-.278h.364c.158 0 .286.129.286.288v.467c0 .55.54.73.845.73.62 0 1.132.506 1.132 1.13a.42.42 0 0 1-.64.356c-.521-.316-1.406-.564-1.849-.455-.433.099-1.377.96-1.377.96s-1.112.258-1.082-.316v-.278c.01-.267-.246-.386-.472-.386h-1.023c-.305 0-.6.119-.817.337l-.315.317a1.127 1.127 0 0 1-.806.336H8.812a1.22 1.22 0 0 0-.915.377l-1.052 1.119a1.745 1.745 0 0 0-.462 1.188v.704c0 .88 1.091 2.555 1.967 2.555h2.813c.915 0 1.653.742 1.653 1.664v1.703c0 .357.295.654.649.654h.344c.207 0 .492.138.492.693v2.089c0 .584.472 1.07 1.062 1.07h.482c.286 0 .551-.11.748-.318l1.444-1.464a1 1 0 0 0 .287-.702v-1.775c.01-.326.275-.714.6-.714.2 0 .387-.1.5-.265l1.713-2.523c.099-.198.148-.416.148-.634v-.356a.328.328 0 0 0-.285-.317c-1.116-.233-2.686-1.038-2.686-2.03v-.33c0-1.388 1.126-1.387 1.411-1.387h.006c.275 0 .492.227.492.495v.842c0 .356.443.794 1.076.505l1.007-.505c.502-.258.635-.785.25-1.245-.359-.43-.472-1.156.29-1.156h1.39c1.258 0 1.948 1.913 1.948 3.101v.535c0 .169.137.307.305.307h.334a.635.635 0 0 0 .531-.287l2.247-3.075a14.026 14.026 0 0 0-9.693-10.114Z" fill="url(#g)"/></g><g filter="url(#h)"><rect x="21.172" y="21.102" width=".93" height="1.906" rx=".465" fill="#1C51A0"/></g><g filter="url(#i)"><rect x="21.25" y="21.031" width=".984" height="1.914" rx=".492" fill="url(#j)"/></g><defs><filter id="a" x="2" y="1.75" width="28.25" height="28.25" filterUnits="userSpaceOnUse" color-interpolation-filters="sRGB"><feFlood flood-opacity="0" result="BackgroundImageFix"/><feBlend in="SourceGraphic" in2="BackgroundImageFix" result="shape"/><feColorMatrix in="SourceAlpha" values="0 0 0 0 0 0 0 0 0 0 0 0 0 0 0 0 0 0 127 0" result="hardAlpha"/><feOffset dx=".25" dy="-.25"/><feGaussianBlur stdDeviation="1"/><feComposite in2="hardAlpha" operator="arithmetic" k2="-1" k3="1"/><feColorMatrix values="0 0 0 0 0.388235 0 0 0 0 0.537255 0 0 0 0 0.694118 0 0 0 1 0"/><feBlend in2="shape" result="effect1_innerShadow_18_4729"/></filter><filter id="d" x="6.185" y="2.582" width="23.418" height="23.612" filterUnits="userSpaceOnUse" color-interpolation-filters="sRGB"><feFlood flood-opacity="0" result="BackgroundImageFix"/><feBlend in="SourceGraphic" in2="BackgroundImageFix" result="shape"/><feGaussianBlur stdDeviation=".05" result="effect1_foregroundBlur_18_4729"/></filter><filter id="f" x="6.283" y="2.453" width="23.418" height="23.512" filterUnits="userSpaceOnUse" color-interpolation-filters="sRGB"><feFlood flood-opacity="0" result="BackgroundImageFix"/><feBlend in="SourceGraphic" in2="BackgroundImageFix" result="shape"/><feColorMatrix in="SourceAlpha" values="0 0 0 0 0 0 0 0 0 0 0 0 0 0 0 0 0 0 127 0" result="hardAlpha"/><feOffset dx="-.1" dy="-.1"/><feGaussianBlur stdDeviation=".05"/><feComposite in2="hardAlpha" operator="arithmetic" k2="-1" k3="1"/><feColorMatrix values="0 0 0 0 0.403922 0 0 0 0 0.929412 0 0 0 0 0.690196 0 0 0 1 0"/><feBlend in2="shape" result="effect1_innerShadow_18_4729"/><feColorMatrix in="SourceAlpha" values="0 0 0 0 0 0 0 0 0 0 0 0 0 0 0 0 0 0 127 0" result="hardAlpha"/><feOffset dx=".1" dy="-.1"/><feGaussianBlur stdDeviation=".05"/><feComposite in2="hardAlpha" operator="arithmetic" k2="-1" k3="1"/><feColorMatrix values="0 0 0 0 0.203922 0 0 0 0 0.592157 0 0 0 0 0.482353 0 0 0 1 0"/><feBlend in2="effect1_innerShadow_18_4729" result="effect2_innerShadow_18_4729"/></filter><filter id="h" x="20.972" y="20.902" width="1.33" height="2.306" filterUnits="userSpaceOnUse" color-interpolation-filters="sRGB"><feFlood flood-opacity="0" result="BackgroundImageFix"/><feBlend in="SourceGraphic" in2="BackgroundImageFix" result="shape"/><feGaussianBlur stdDeviation=".1" result="effect1_foregroundBlur_18_4729"/></filter><filter id="i" x="21.2" y="20.981" width="1.084" height="2.014" filterUnits="userSpaceOnUse" color-interpolation-filters="sRGB"><feFlood flood-opacity="0" result="BackgroundImageFix"/><feBlend in="SourceGraphic" in2="BackgroundImageFix" result="shape"/><feColorMatrix in="SourceAlpha" values="0 0 0 0 0 0 0 0 0 0 0 0 0 0 0 0 0 0 127 0" result="hardAlpha"/><feOffset dx="-.05" dy=".05"/><feGaussianBlur stdDeviation=".05"/><feComposite in2="hardAlpha" operator="arithmetic" k2="-1" k3="1"/><feColorMatrix values="0 0 0 0 0.423529 0 0 0 0 0.960784 0 0 0 0 0.721569 0 0 0 1 0"/><feBlend in2="shape" result="effect1_innerShadow_18_4729"/><feColorMatrix in="SourceAlpha" values="0 0 0 0 0 0 0 0 0 0 0 0 0 0 0 0 0 0 127 0" result="hardAlpha"/><feOffset dx=".05" dy="-.05"/><feGaussianBlur stdDeviation=".1"/><feComposite in2="hardAlpha" operator="arithmetic" k2="-1" k3="1"/><feColorMatrix values="0 0 0 0 0.254902 0 0 0 0 0.568627 0 0 0 0 0.513726 0 0 0 1 0"/><feBlend in2="effect1_innerShadow_18_4729" result="effect2_innerShadow_18_4729"/></filter><radialGradient id="b" cx="0" cy="0" r="1" gradientUnits="userSpaceOnUse" gradientTransform="rotate(122.072 8.163 12.107) scale(21.1401 23.9585)"><stop stop-color="#63D8FF"/><stop offset="1" stop-color="#3488EF"/></radialGradient><radialGradient id="c" cx="0" cy="0" r="1" gradientUnits="userSpaceOnUse" gradientTransform="matrix(-19.2977 17.52941 -23.20134 -25.54178 25.754 9.62)"><stop offset=".496" stop-color="#465DC2" stop-opacity="0"/><stop offset="1" stop-color="#465DC2"/></radialGradient><radialGradient id="g" cx="0" cy="0" r="1" gradientUnits="userSpaceOnUse" gradientTransform="matrix(-13.9928 14.60787 -13.47771 -12.91022 24.217 8.543)"><stop offset=".292" stop-color="#78FFB5"/><stop offset="1" stop-color="#409A79"/></radialGradient><linearGradient id="e" x1="19.23" y1="6.152" x2="11.418" y2="21.152" gradientUnits="userSpaceOnUse"><stop stop-color="#40B9F0"/><stop offset="1" stop-color="#305CBD"/></linearGradient><linearGradient id="j" x1="21.25" y1="21.988" x2="22.448" y2="21.988" gradientUnits="userSpaceOnUse"><stop stop-color="#55CC9B"/><stop offset="1" stop-color="#53C999"/></linearGradient></defs></svg>
